pkgs/clan-app/ui/icons/heart.svg

<svg xmlns="http://www.w3.org/2000/svg" width="48" height="48" viewBox="0 0 48 48" fill="currentColor">
    <path d="M20.2002 12.7998H23V15.5996H25.8008V14.2002H28.6006V10H34.2002V12.7998H37V15.5996H39.8008V24H37V26.7998H34.2002V29.5996H31.4004V32.4004H28.6006V35.2002H25.8008V38H23V35.2002H20.2002V32.4004H17.4004V29.5996H14.6006V26.7998H11.8008V24H9V15.5996H11.8008V12.7998H14.6006V10H20.2002V12.7998Z"/>
</svg>

<svg xmlns="http://www.w3.org/2000/svg" width="48" height="48" fill="currentColor"><path d="M20.2 12.8H23v2.8h2.8v-1.4h2.8V10h5.6v2.8H37v2.8h2.8V24H37v2.8h-2.8v2.8h-2.8v2.8h-2.8v2.8h-2.8V38H23v-2.8h-2.8v-2.8h-2.8v-2.8h-2.8v-2.8h-2.8V24H9v-8.4h2.8v-2.8h2.8V10h5.6z"/></svg>
